SVG-Logos/Frameworks-Languages-IDEs/Process/prplx master/d3.svg

<?xml version="1.0" encoding="UTF-8"?>
<svg width="96px" height="91px" viewBox="0 0 96 91" version="1.1" xmlns="http://www.w3.org/2000/svg" xmlns:xlink="http://www.w3.org/1999/xlink">
    <!-- Generator: Sketch 46.2 (44496) - http://www.bohemiancoding.com/sketch -->
    <title>d3</title>
    <desc>Created with Sketch.</desc>
    <defs>
        <linearGradient x1="-79.2484128%" y1="-92.819878%" x2="102.393822%" y2="106.041826%" id="linearGradient-1">
            <stop stop-color="#F9A03C" offset="0%"></stop>
            <stop stop-color="#F7974E" offset="100%"></stop>
        </linearGradient>
        <linearGradient x1="-258.923825%" y1="-245.99449%" x2="97.6202479%" y2="98.283081%" id="linearGradient-2">
            <stop stop-color="#F9A03C" offset="0%"></stop>
            <stop stop-color="#F7974E" offset="100%"></stop>
        </linearGradient>
        <linearGradient x1="-208.625688%" y1="-261.967947%" x2="91.6852743%" y2="101.690818%" id="linearGradient-3">
            <stop stop-color="#F9A03C" offset="0%"></stop>
            <stop stop-color="#F7974E" offset="100%"></stop>
        </linearGradient>
        <linearGradient x1="15.4024229%" y1="-1.82169774%" x2="79.0804991%" y2="92.1067478%" id="linearGradient-4">
            <stop stop-color="#F26D58" offset="0%"></stop>
            <stop stop-color="#F9A03C" offset="100%"></stop>
        </linearGradient>
        <linearGradient x1="15.8436473%" y1="10.9928244%" x2="120.126091%" y2="68.9196662%" id="linearGradient-5">
            <stop stop-color="#B84E51" offset="0%"></stop>
            <stop stop-color="#F68E48" offset="100%"></stop>
        </linearGradient>
        <linearGradient x1="49.1718487%" y1="23.4664325%" x2="50.5165262%" y2="147.391179%" id="linearGradient-6">
            <stop stop-color="#F9A03C" offset="0%"></stop>
            <stop stop-color="#F7974E" offset="100%"></stop>
        </linearGradient>
    </defs>
    <g id="Page-1" stroke="none" stroke-width="1" fill="none" fill-rule="evenodd">
        <g id="Logos" transform="translate(-30.000000, -1462.000000)" fill-rule="nonzero">
            <g id="d3" transform="translate(30.000000, 1462.000000)">
                <path d="M95.9017702,64.9230292 C95.9448621,64.5123709 95.9759279,64.0977831 95.9999791,63.6812302 C96.0290412,63.1880473 65.7245421,35 65.7245421,35 L65,35 C65,35 95.7163757,66.7631311 95.9017702,64.9230292 L95.9017702,64.9230292 L95.9017702,64.9230292 Z" id="Shape" fill="url(#linearGradient-1)"></path>
                <path d="M31.2965469,56.0428376 C31.2567563,56.1299403 31.2169657,56.2170429 31.1761804,56.3041452 C31.1334055,56.3952071 31.0896359,56.4862687 31.0458663,56.5763408 C30.0869135,58.5658412 44.4702101,72.5566816 45.6271208,70.8571927 C45.6798432,70.7819681 45.732566,70.7027837 45.7852883,70.6275591 C45.8439793,70.538477 45.9016758,70.4533538 45.9593722,70.3642717 C46.884503,68.9666725 31.7073845,55.1342001 31.2965469,56.0428376 L31.2965469,56.0428376 L31.2965469,56.0428376 Z" id="Shape" fill="url(#linearGradient-2)"></path>
                <path d="M51.582946,76 C51.5429854,76.0901503 51.2593617,76.5829716 51.0001043,76.8434056 C50.956245,76.9335558 64.7573186,91 64.7573186,91 L66,91 C66.0009744,91 53.0449242,76.5949917 51.582946,76 L51.582946,76 L51.582946,76 Z" id="Shape" fill="url(#linearGradient-3)"></path>
                <path d="M96,64.5109745 C95.3375719,79.2304422 83.1847235,91 68.3371344,91 L66.3298378,91 L51.5022619,76.3627529 C52.7220495,74.6391313 53.8557819,72.8533432 54.8654337,70.9913506 L68.3371344,70.9913506 C72.5978859,70.9913506 76.0651252,67.5190401 76.0651252,63.2475869 C76.0651252,58.9781391 72.5978859,55.5038233 68.3371344,55.5038233 L60.3649855,55.5038233 C60.9723779,52.286196 61.3045923,48.9682996 61.3045923,45.5741988 C61.3045923,42.1279585 60.966374,38.7629359 60.3369677,35.4941712 L65.2891658,35.4941712 L95.9129438,65.7302439 C95.948967,65.3251574 95.9779857,64.9200714 96,64.5109745 L96,64.5109745 L96,64.5109745 Z M8.05520232,0 L0,0 L0,20.0086496 L8.05520232,20.0086496 C22.1242886,20.0086496 33.5716817,31.4763983 33.5716817,45.5741988 C33.5716817,49.4094824 32.7181304,53.0502446 31.2011507,56.3190091 L45.8966415,70.828915 C50.7217579,63.5945173 53.5425795,54.9092291 53.5425795,45.5741988 C53.5425795,20.4448191 33.1364006,0 8.05520232,0 L8.05520232,0 L8.05520232,0 Z" id="Shape" fill="url(#linearGradient-4)"></path>
                <path d="M68.4498127,0 L36,0 C43.9258056,4.81984595 50.4888343,11.6544886 54.9604143,19.7860575 L68.4498127,19.7860575 C72.688456,19.7860575 76.1377044,23.2197392 76.1377044,27.4436733 C76.1377044,31.6666159 72.688456,35.1002975 68.4498127,35.1002975 L65.418655,35.1002975 L95.8835319,65 C95.9552046,64.1889255 96,63.372893 96,62.5439708 C96,55.8739226 93.5969739,49.7551674 89.6071939,44.9928304 C93.5969739,40.2324767 96,34.1127298 96,27.4436733 C96,12.3118755 83.6424329,0 68.4498127,0 L68.4498127,0 L68.4498127,0 Z" id="Shape" fill="url(#linearGradient-5)"></path>
                <path d="M66,90.850875 L35.7724441,90.850875 C41.8569856,87.048192 47.117112,82.028328 51.2461571,76.1419277 L66,90.850875 L66,90.850875 Z M45.6684117,70.5809824 L31.0469927,56 C27.0075581,64.7852661 18.2048366,70.8953537 8.01514629,70.8953537 L0,70.8953537 L0,91 L8.01514629,91 C23.7009369,91 37.5457329,82.8807578 45.6684117,70.5809824 L45.6684117,70.5809824 L45.6684117,70.5809824 Z" id="Shape" fill="url(#linearGradient-6)"></path>
            </g>
        </g>
    </g>
</svg>

<svg xmlns="http://www.w3.org/2000/svg" viewBox="0 0 96 91"><defs><linearGradient id="a" x1="-79.248%" x2="102.394%" y1="-92.82%" y2="106.042%"><stop offset="0%" stop-color="#F9A03C"/><stop offset="100%" stop-color="#F7974E"/></linearGradient><linearGradient id="b" x1="-258.924%" x2="97.62%" y1="-245.994%" y2="98.283%"><stop offset="0%" stop-color="#F9A03C"/><stop offset="100%" stop-color="#F7974E"/></linearGradient><linearGradient id="c" x1="-208.626%" x2="91.685%" y1="-261.968%" y2="101.691%"><stop offset="0%" stop-color="#F9A03C"/><stop offset="100%" stop-color="#F7974E"/></linearGradient><linearGradient id="d" x1="15.402%" x2="79.08%" y1="-1.822%" y2="92.107%"><stop offset="0%" stop-color="#F26D58"/><stop offset="100%" stop-color="#F9A03C"/></linearGradient><linearGradient id="e" x1="15.844%" x2="120.126%" y1="10.993%" y2="68.92%"><stop offset="0%" stop-color="#B84E51"/><stop offset="100%" stop-color="#F68E48"/></linearGradient><linearGradient id="f" x1="49.172%" x2="50.517%" y1="23.466%" y2="147.391%"><stop offset="0%" stop-color="#F9A03C"/><stop offset="100%" stop-color="#F7974E"/></linearGradient></defs><g fill="none" fill-rule="nonzero"><path fill="url(#a)" d="M95.902 64.923c.043-.41.074-.825.098-1.242C96.029 63.188 65.725 35 65.725 35H65s30.716 31.763 30.902 29.923Z"/><path fill="url(#b)" d="M31.297 56.043a30.533 30.533 0 0 1-.251.533c-.96 1.99 13.424 15.98 14.581 14.281.053-.075.106-.154.158-.23.059-.089.117-.174.174-.263.926-1.397-14.252-15.23-14.662-14.321Z"/><path fill="url(#c)" d="M51.583 76c-.04.09-.324.583-.583.843C50.956 76.933 64.757 91 64.757 91H66c.001 0-12.955-14.405-14.417-15Z"/><path fill="url(#d)" d="M96 64.511C95.338 79.231 83.185 91 68.337 91H66.33L51.502 76.363a53.27 53.27 0 0 0 3.363-5.372h13.472c4.26 0 7.728-3.472 7.728-7.743 0-4.27-3.467-7.744-7.728-7.744h-7.972c.607-3.218.94-6.536.94-9.93 0-3.446-.339-6.811-.968-10.08h4.952L95.913 65.73c.036-.405.065-.81.087-1.219ZM8.055 0H0v20.009h8.055c14.07 0 25.517 11.467 25.517 25.565 0 3.835-.854 7.476-2.37 10.745l14.695 14.51a45.37 45.37 0 0 0 7.646-25.255C53.543 20.444 33.136 0 8.055 0Z"/><path fill="url(#e)" d="M68.45 0H36a53.21 53.21 0 0 1 18.96 19.786h13.49c4.238 0 7.688 3.434 7.688 7.658 0 4.223-3.45 7.656-7.688 7.656h-3.031L95.884 65c.071-.811.116-1.627.116-2.456 0-6.67-2.403-12.789-6.393-17.551 3.99-4.76 6.393-10.88 6.393-17.55C96 12.313 83.642 0 68.45 0Z"/><path fill="url(#f)" d="M66 90.85H35.772c6.085-3.802 11.345-8.822 15.474-14.708L66 90.85ZM45.668 70.582 31.047 56c-4.04 8.785-12.842 14.895-23.032 14.895H0V91h8.015c15.686 0 29.53-8.12 37.653-20.419Z"/></g></svg>
